_site/images/homepage/verification-advanced.svg

<svg fill="none" height="40" viewBox="0 0 40 40" width="40" xmlns="http://www.w3.org/2000/svg"><path d="m32.5 40h-25c-4.1425 0-7.5-3.3575-7.5-7.5v-25c0-4.1425 3.3575-7.5 7.5-7.5h25c4.1425 0 7.5 3.3575 7.5 7.5v25c0 4.1425-3.3575 7.5-7.5 7.5z" fill="#ffc634"/><g fill="#fafafa"><path d="m23.9 12.525-6.6675-2.5c-.1-.03374-.2-.03374-.3 0l-6.6675 2.5c-.1575.0588-.265.2163-.265.3913v5.3587c0 5.675 3.8663 8.0088 5.8425 8.8338.0838-1.725 1.2-3.2088 2.775-3.8163.8988-1.9587 2.9075-3.2925 5.1325-3.2925.0913 0 .1913 0 .2838.0088.0912-.5413.1337-1.1163.1337-1.7338v-5.3587c-.0012-.175-.1087-.3325-.2675-.3913z"/><path d="m26.7938 30h-6.5938c-1.4887 0-2.7-1.1963-2.7-2.6663 0-1.3675 1.0475-2.4975 2.3925-2.6487.4138-1.7425 2.015-3.0175 3.8588-3.0175 1.4512 0 2.79.79 3.4775 2.0337 1.5725.2038 2.7712 1.5363 2.7712 3.1325 0 1.7463-1.4375 3.1663-3.2062 3.1663z"/></g></svg>

<svg width="40" height="40" viewBox="0 0 40 40" fill="none" xmlns="http://www.w3.org/2000/svg">
<path d="M32.5 40H7.5C3.3575 40 0 36.6425 0 32.5V7.5C0 3.3575 3.3575 0 7.5 0H32.5C36.6425 0 40 3.3575 40 7.5V32.5C40 36.6425 36.6425 40 32.5 40Z" fill="#FFC634"/>
<path d="M23.9 12.525L17.2325 10.025C17.1325 9.99126 17.0325 9.99126 16.9325 10.025L10.265 12.525C10.1075 12.5838 10 12.7413 10 12.9163V18.275C10 23.95 13.8663 26.2838 15.8425 27.1088C15.9263 25.3838 17.0425 23.9 18.6175 23.2925C19.5163 21.3338 21.525 20 23.75 20C23.8413 20 23.9413 20 24.0338 20.0088C24.125 19.4675 24.1675 18.8925 24.1675 18.275V12.9163C24.1663 12.7413 24.0588 12.5838 23.9 12.525Z" fill="#FAFAFA"/>
<path d="M26.7938 30H20.2C18.7113 30 17.5 28.8037 17.5 27.3337C17.5 25.9662 18.5475 24.8362 19.8925 24.685C20.3063 22.9425 21.9075 21.6675 23.7513 21.6675C25.2025 21.6675 26.5413 22.4575 27.2288 23.7012C28.8013 23.905 30 25.2375 30 26.8337C30 28.58 28.5625 30 26.7938 30Z" fill="#FAFAFA"/>
</svg>
